packages/astro-components-stencil/src/icons/move-to-inbox.svg

<svg xmlns="http://www.w3.org/2000/svg" viewBox="0 0 24 24"><g xmlns="http://www.w3.org/2000/svg" id="move-to-inbox" fill-rule="nonzero">
            <path d="M19 3H4.99C3.88 3 3 3.9 3 5v14c0 1.1.88 2 1.99 2H19c1.1 0 2-.9 2-2V5c0-1.1-.9-2-2-2zm0 12h-3.13c-.47 0-.85.34-.98.8A3.006 3.006 0 0112 18c-1.37 0-2.54-.93-2.89-2.2-.13-.46-.51-.8-.98-.8H4.99V6c0-.55.45-1 1-1H18c.55 0 1 .45 1 1v9zm-3-5h-2V7h-4v3H8l3.65 3.65c.2.2.51.2.71 0L16 10z"/>
        </g></svg>

<svg width="24" height="24" viewBox="0 0 24 24" fill="none" xmlns="http://www.w3.org/2000/svg">
<path fill-rule="evenodd" clip-rule="evenodd" d="M19 3H4.99C3.88 3 3 3.9 3 5V19C3 20.1 3.88 21 4.99 21H19C20.1 21 21 20.1 21 19V5C21 3.9 20.1 3 19 3ZM19 15H15.87C15.4 15 15.02 15.34 14.89 15.8C14.54 17.07 13.37 18 12 18C10.63 18 9.46 17.07 9.11 15.8C8.98 15.34 8.6 15 8.13 15H4.99V6C4.99 5.45 5.44 5 5.99 5H18C18.55 5 19 5.45 19 6V15ZM14 10H16L12.36 13.65C12.16 13.85 11.85 13.85 11.65 13.65L8 10H10V7H14V10Z" fill="black"/>
</svg>
